X: 10481
M: C|
L: 1/8
K: A
(uc>d) |\
e>(ag)>(f e)>(dc)>(B | A)>cE>A c2((3cBA) | G>BE>G B2((3BAG) | A>cE>A c2(c>d) |
e>(ag)>(f e)>(dc)>(B | A)>cE>A c2((3cBA) | G>AB>c d>ef>g | a2A2 A2 :|
|: ((3ucBA) |\
e>(ag)>(f e)>(dc)>(B | A)>cE>A c2((3cBA) | G>AB>c d>ef>g | a2A2 A2 :|


